Catalina-dark/actions/22/draw-polyline.svg

<svg xmlns="http://www.w3.org/2000/svg" viewBox="0 0 22 22">
  <defs id="defs3051">
    <style type="text/css" id="current-color-scheme">
      .ColorScheme-Text {
        color:#f2f2f2
      }
      </style>
  </defs>
 <path 
     style="fill:currentColor;fill-opacity:1;stroke:none"      
        d="M 2.5 3 L 2.5 4 L 2.5 14 L 2.5 15 L 6.5 15 L 6.5 19 L 7.5 19 L 18.5 19 L 19.492188 19 L 19.5 18.992188 L 11.207031 10.699219 L 8.5 7.9921875 L 8.5 4 L 8.5 3 L 3.5 3 L 2.5 3 z "
	 class="ColorScheme-Text"
     />
</svg>

<svg width="22" height="22" viewBox="2.5 3 17 16" xmlns="http://www.w3.org/2000/svg">
<defs>
<style id="current-color-scheme" type="text/css">.ColorScheme-Text {
        color:#f2f2f2
      }</style>
</defs>
<path class="ColorScheme-Text" d="m2.5 3v1 10 1h4v4h1 11 0.99219l0.007812-0.007812-11-11v-3.9922-1h-5-1z" fill="currentColor"/>
</svg>
